X:1
T:Weymouth Quickstep, The
L:1/8
M:6/8
I:linebreak $
K:D
V:1 treble 
V:1
 f/e/ | d2 A AFA | d2 e f2 g | a2 f def | g2 e e2 f | d2 A AFA | d2 e f2 g | a2 f ede | f2 d d2 :: %9
 A |$ d3 cBc | dAF DFA | d3 cBc | d2 f d2 A | d3 cBc | dAF DFA | d3 cBc | d3 d2 :: A |$ B3 dcB | %20
 B2 A A2 F | E2 F GFE | F2 G A3 | B3 dcB | B2 A A2 G | FGF EDE | D3 D2 :: A | d3 d3 |$ e3 d3 | %30
 cBc ABc | d2 e f2 A | d3 d3 | e3 d3 | cBc ABc | d3 d2 :| %36
